src/components/GenericError/assets/error-cross-small.svg

<?xml version="1.0" encoding="UTF-8"?>
<svg width="54px" height="54px" viewBox="0 0 54 54" version="1.1" xmlns="http://www.w3.org/2000/svg" xmlns:xlink="http://www.w3.org/1999/xlink">
    <!-- Generator: sketchtool 58 (101010) - https://sketch.com -->
    <title>12A4870E-9B11-4630-9027-85EB18E43771@1.00x</title>
    <desc>Created with sketchtool.</desc>
    <g id="Web-pending" stroke="none" stroke-width="1" fill="none" fill-rule="evenodd">
        <g id="[]-web-mob-M_002_error-browser-android" transform="translate(-153.000000, -227.000000)">
            <g id="error-cross-small" transform="translate(153.000000, 227.000000)">
                <g>
                    <circle id="Oval" fill="#E61C1C" cx="27" cy="27" r="27"></circle>
                    <path d="M38.2231215,13.1693008 L40.8306992,15.7768785 C41.4067493,16.3529286 41.4067493,17.2868905 40.8306992,17.8629406 L31.6932632,26.9992632 L40.8306992,36.1370594 C41.4067493,36.7131095 41.4067493,37.6470714 40.8306992,38.2231215 L38.2231215,40.8306992 C37.6470714,41.4067493 36.7131095,41.4067493 36.1370594,40.8306992 L26.9992632,31.6932632 L17.8629406,40.8306992 C17.2868905,41.4067493 16.3529286,41.4067493 15.7768785,40.8306992 L13.1693008,38.2231215 C12.5932507,37.6470714 12.5932507,36.7131095 13.1693008,36.1370594 L22.3062632,26.9992632 L13.1693008,17.8629406 C12.5932507,17.2868905 12.5932507,16.3529286 13.1693008,15.7768785 L15.7768785,13.1693008 C16.3529286,12.5932507 17.2868905,12.5932507 17.8629406,13.1693008 L26.9992632,22.3062632 L36.1370594,13.1693008 C36.7131095,12.5932507 37.6470714,12.5932507 38.2231215,13.1693008 Z" id="Combined-Shape" fill="#FFFFFF"></path>
                </g>
            </g>
        </g>
    </g>
</svg>

<svg width="54" height="54" xmlns="http://www.w3.org/2000/svg">
    <g fill="none" fill-rule="evenodd">
        <circle fill="#E61C1C" cx="27" cy="27" r="27"/>
        <path d="m38.223 13.17 2.608 2.607c.576.576.576 1.51 0 2.086l-9.138 9.136 9.138 9.138c.576.576.576 1.51 0 2.086l-2.608 2.608a1.475 1.475 0 0 1-2.086 0L27 31.693l-9.136 9.138a1.475 1.475 0 0 1-2.086 0l-2.608-2.608a1.475 1.475 0 0 1 0-2.086L22.306 27l-9.137-9.136a1.475 1.475 0 0 1 0-2.086l2.608-2.608a1.475 1.475 0 0 1 2.086 0l9.136 9.137 9.138-9.137a1.475 1.475 0 0 1 2.086 0z" fill="#FFF"/>
    </g>
</svg>
